modules/hawcons-stroke/icons/icon-61-warning.svg

<?xml version="1.0" encoding="UTF-8" standalone="no"?>
<svg width="32px" height="32px" viewBox="0 0 32 32" version="1.1" xmlns="http://www.w3.org/2000/svg" xmlns:xlink="http://www.w3.org/1999/xlink" xmlns:sketch="http://www.bohemiancoding.com/sketch/ns">
    <!-- Generator: Sketch 3.0.3 (7891) - http://www.bohemiancoding.com/sketch -->
    <title>icon 61 warning</title>
    <desc>Created with Sketch.</desc>
    <defs></defs>
    <g id="Page-1" stroke="none" stroke-width="1" fill="none" fill-rule="evenodd" sketch:type="MSPage">
        <g id="icon-61-warning" sketch:type="MSArtboardGroup" fill="#929292">
            <path d="M15.4242327,5.14839275 C16.2942987,3.74072976 17.707028,3.74408442 18.5750205,5.14839275 L29.3601099,22.59738 C30.5216388,24.4765951 29.6755462,26 27.4714068,26 L6.5278464,26 C4.32321557,26 3.47386317,24.4826642 4.63914331,22.59738 L15.4242327,5.14839275 L15.4242327,5.14839275 Z M16.353181,5.5229211 C16.7005152,4.96165163 17.2647678,4.9634187 17.6110318,5.52292108 L28.6162937,23.3055078 C29.1954663,24.2413498 28.7622271,24.9999996 27.6746349,24.9999996 L6.29039231,25 C5.19115596,25 4.76644971,24.2463265 5.34866262,23.3055082 L16.353181,5.5229211 L16.353181,5.5229211 Z M17,11 C16.4477153,11 16,11.4530363 16,11.9970301 L16,18.0029699 C16,18.5536144 16.4438648,19 17,19 C17.5522847,19 18,18.5469637 18,18.0029699 L18,11.9970301 C18,11.4463856 17.5561352,11 17,11 L17,11 Z M17,23 C17.5522848,23 18,22.5522848 18,22 C18,21.4477152 17.5522848,21 17,21 C16.4477152,21 16,21.4477152 16,22 C16,22.5522848 16.4477152,23 17,23 L17,23 Z" id="warning" sketch:type="MSShapeGroup"></path>
        </g>
    </g>
</svg>

<svg width="32" height="32" viewBox="0 0 32 32" xmlns="http://www.w3.org/2000/svg"><path d="M15.424 5.148c.87-1.407 2.283-1.404 3.151 0l10.785 17.45c1.162 1.879.316 3.402-1.889 3.402H6.528c-2.205 0-3.054-1.517-1.889-3.403L15.424 5.148zm.93.375c.347-.561.91-.56 1.257 0l11.005 17.783c.58.935.146 1.694-.941 1.694H6.29c-1.099 0-1.524-.754-.941-1.694L16.353 5.523zM17 11c-.552 0-1 .453-1 .997v6.006c0 .55.444.997 1 .997.552 0 1-.453 1-.997v-6.006A.996.996 0 0 0 17 11zm0 12a1 1 0 1 0 0-2 1 1 0 0 0 0 2z" fill="#929292" fill-rule="evenodd"/></svg>
